svg/color/usyc.svg

<svg width="300" height="300" viewBox="0 0 300 300" fill="none" xmlns="http://www.w3.org/2000/svg">
<g clip-path="url(#clip0_1232_71)">
<path d="M150 300C232.843 300 300 232.843 300 150C300 67.1573 232.843 0 150 0C67.1573 0 0 67.1573 0 150C0 232.843 67.1573 300 150 300Z" fill="#002855"/>
<path d="M124.691 237H87.7453C85.4251 237 83.983 234.479 85.1596 232.479L93.1504 218.895C95.8453 214.313 100.764 211.5 106.079 211.5H115.619C121.095 211.5 126.137 208.515 128.771 203.713L196.73 79.7874C199.363 74.9853 204.405 72 209.882 72H217.5H227.447C229.724 72 231.17 74.4375 230.08 76.4367L223.5 88.5L151.028 221.365C145.771 231.003 135.669 237 124.691 237Z" fill="white"/>
<path opacity="0.7" d="M106.34 72H89.0994C86.8116 72 85.3659 74.4576 86.4771 76.4574L134.734 163.293C135.875 165.347 138.829 165.35 139.975 163.298L148.922 147.276C151.457 142.736 151.461 137.209 148.932 132.666L119.446 79.7037C116.799 74.9481 111.783 72 106.34 72Z" fill="white"/>
</g>
<defs>
<clipPath id="clip0_1232_71">
<rect width="300" height="300" fill="white"/>
</clipPath>
</defs>
</svg>

<svg xmlns="http://www.w3.org/2000/svg" width="300" height="300" fill="none" viewBox="0 0 300 300"><g clip-path="url(#usyc_svg-a)"><path fill="#002855" d="M150 300c82.843 0 150-67.157 150-150S232.843 0 150 0 0 67.157 0 150s67.157 150 150 150"/><path fill="#fff" d="M124.691 237H87.745c-2.32 0-3.762-2.521-2.585-4.521l7.99-13.584a15 15 0 0 1 12.929-7.395h9.54a15 15 0 0 0 13.152-7.787L196.73 79.787A15 15 0 0 1 209.882 72h17.565c2.277 0 3.723 2.438 2.633 4.437L223.5 88.5l-72.472 132.865A30 30 0 0 1 124.691 237"/><path fill="#fff" d="M106.34 72H89.1c-2.288 0-3.734 2.458-2.623 4.457l48.257 86.836c1.141 2.054 4.095 2.057 5.241.005l8.947-16.022a15 15 0 0 0 .01-14.61l-29.486-52.962A15 15 0 0 0 106.34 72" opacity=".7"/></g><defs><clipPath id="usyc_svg-a"><path fill="#fff" d="M0 0h300v300H0z"/></clipPath></defs></svg>
